d1 $ n "0 1 2 [3 5]" # sound "cpu"
  |+| n "<[4 5 3 2] [5 4 3] [6 5]>"
  # squiz 2 # pan 0

d2 $ every 4 (fast 2) $ n "0(<3 5 4>,8)" # sound "cpu2" # squiz 5 # pan 1

d3 $ every 4 (slow 2) $ n "0 1 2 3" # sound "numbers" |+ n "5 8" # pan "0 1" # gain 0.9

d4 $ every 8 (fast 2) $ off 0.5 (|+| "<7 5 3 9>")
$ n ("7 5 [<2 5 7 9> 7] 0" |+ "<-12 0 12 5>") # sound "arpy"
# pan perlin # gain 0.9

xfade 4 4

xfade 2 4

xfade 1 4

hush
