d1 $ stack [
s "aspk:0 ~ ~ ~ ~ aspk:0 ~ ~" # room 0.3 # gain 1.2,
s "~ ~ asphh:0 ~ ~ ~ ~ ~" # pan saw,
s "~ ~ asps:2 ~ ~ ~ asps:2 ~" # pan sine
]

d2 $ stack [
slow 2 $ jux (hurry 0.5) $ iter 12 $ n (scale "major" (run 4 + "1 5") + "d4 a5") # s "superpiano(2,5)" # room 0.4 # legato 3 # velocity "0.7 0.6",
slow 2 $ n (scale "major" ("[0,1,3]" + "1 5") + "d4") # s "superpiano" # room 0.3 # legato 1 # velocity 0.7
]

xfade 1 4

hush