d1 $ slow 4 $ n (scale "major" ("[-1,1,3]" + "2 5 1 6") + "c4") # s "superpiano" # legato 1 # room 0.5 # velocity 0.6 # pan 0.1 #silence

d2 $ every 4 (rev)
$ off 0.5 (|+| 5)
$ n (scale "major" ("2 5 1 6") + "f4") # s "supervibe" # legato 2 # room 0.8 # velocity 0.6 # pan 0.8 # gain 0.7

d3 $ stack
[
--s "808bd(3,8)",
--s "~808sd*2"
]

hush
