d1 $ sometimes (palindrome) $ note (scale "minor" $ snowball 4 (+) (slow 2) $ (run 3)) # s "supervibe" # gain 0.8 # room 0.4

d2 $ slow 3 $ n (scale "minor" ("[0,1,3]" + "0 4 6") + "c4")
    # s "superpiano" # pan 0.2 # legato 3 # room 0.4 # velocity 0.9 # pan 0.2 # lpf 900

d3 $ stack [
  s "bd(2,5)" # gain 1.1,
  s "~808sd" # pan 0.8,
  s "hh*4" # pan 0.2
]

d4 $ note (scale "minor" $ snowball 4 (+) (slow 2) $ (run 3)) #sound "gtr" # gain 0.9 # room 0.2 # pan 0.7

resetCycles

hush
