d1 $ rarely (slow 2)
$ every 3 (rev)
$ stack [
s "808bd(<5,6,3,4>,9)" # gain 1.2 # n (irand 6),
s "808hc(<3,6,5,4>,9)" # n(irand 10) # pan saw # gain 1.2,
--s "lighter(2,5)" # gain 1.8 # pan rand,
--s "insect(3,8)" # room 0.2 # gain 1.5 # n (irand 30) # pan sine
]

d2 $ stack [
--s "superchip(<5,6,3,4>,9)" # room 0.2 # gain 1.2,
s "bass1(3,9)" # sustain 2 # gain "1.5 1.2 1.6"
]

hush
