d1 $ slow 2 $ n "b'maj [d'maj e'maj]" # s "superpiano" # legato 3 # room 0.3 # velocity "0.7 0.6 0.8" # gain 0.8

d2 $ every 3 (rev) $ off 0.125 (|+| 2)
$ every 5 (|+| 7) $ off 0.25 (|+| 5)
$ every 6 (fast 2) $ slow 2 $ n "b(3,8) [d e]" # s "supermandolin" # legato 5 # phasr 0.8 # pan saw

d3 $ stack [
s "808bd(<3,1,4>,8)",
s "~ 808cy" # pan 0.8
s "808sd(2,5)" # pan 0.2
]

hush
