d1 $ stack [
jux (hurry 0.5) $ iter 8 $ n (scale "phrygian" ("2 5 1 6") + "f4") # s "supervibe" # legato 2 # room 0.5 # gain 0.7,
slow 4 $ n (scale "phrygian" ("[0,1,3]" + "2 5 1 6") + "f4") # s "superpiano" # legato 2 # room 0.3 # velocity 0.7
]

d2 $ stack
[
s "super808(3,8)" # pan perlin # gain 0.8,
s "~808sd*2" # pan saw # gain 0.8
]

xfade 1 4

xfade 2 4

hush